X:1
T:Title
%%score { ( 1 3 4 ) | ( 2 5 ) }
L:1/8
M:4/4
K:C
V:1 treble nm="Grand Piano"
V:3 treble 
V:4 treble 
V:2 bass 
V:5 bass 
V:1
 z4 z2[Q:1/4=100] [EG]2 | [Ec]2 [Ec]>[Ec] [Ec]2 [CG]>[CGA] | [FB]2 [FB]>[FB] [FB]2 [Ec]2 | %3
 d2 d>d d2 c>d | e6 [Gc]2 | [Ac]2 [Ac]>[Ac] [Ac]2 [GB]>A | G2 G>G G2 [GA]2 | %7
 [GB]2 [GB]>[GB] [EGc]2 [D^FB]>[CDA] |[M:3/4] [B,DG]6 |[M:1/4] G2 |[M:4/4] d6 z2 | e6 z2 | B6 z2 | %13
 c6 z2 | [Ac]2 [Ac]>[Ac] [Ac]2 [GB]>[FA] | z [EG]3- [EG]2 z2 | e2 e>e e2 [Fd]>[Ec] | %17
 [Ec] [DB]3- [DB]2 B2 | c2 c>c G2 ^G2 | A2 [GB]>[GB] [Gc]2 [Af]2 | [Ge]4 [Fd]3 [Ec] | %21
[M:3/4] [Ec]6 |] %22
V:2
 z4 z2 [C,G,]2 | [C,G,]2 [C,G,]>[C,G,] [C,G,]2 C,>B,, | [D,G,]2 [D,G,]>[D,G,] [D,G,]2 [C,G,]2 | %3
 [G,B,F]2 [G,B,F]>[G,B,F] [G,B,F]2 [G,CE]>[G,B,G] | [CG]6[K:bass] [E,C]2 | %5
 [F,C]2 [F,C]>[F,C] [F,C]2 [F,C]>[F,CF] | [E,C]2 [E,C]>[E,C] [E,C]2 [_E,C]2 | %7
 [D,D]2 [D,D]>[D,D] D,2 D,>D, |[M:3/4] G,,6 |[M:1/4] [G,B,]2 | %10
[M:4/4][K:treble] [G,B,G]2 [G,B,]>[G,B,] B,C [G,G]->[G,B,G] | %11
 [CG]2[K:bass] [G,C]>[E,C] [C,C]2 [C,G,]2 | z4 .^G,2 B,2 | [A,E]2 [E,A,]>[C,A,] [A,,A,]2 [A,E]2 | %14
 [F,C]2 [F,C]>[F,C] [F,C]2 [F,C]>[F,C] | [C,C][C,C] C,>C, C,2 [C,C]2 | %16
 [CG]2 [CG]>[CG] [CG]2[K:bass] [C,C]>[E,G,] | G,G, G,>G, G,2[K:treble] [^G,DF]2 | %18
 [A,CE]2[K:bass] [A,CE]>[A,CE] [E,C]2 [E,B,D]2 | [F,A,C]2 [F,D]>[F,D] [E,C]2 [D,C]2 | %20
 [G,C]4 [G,,B,]3 [C,G,] |[M:3/4] [C,G,]6 |] %22
V:3
 x8 | x8 | x8 | x8 | x8 | x8 | x8 | x8 |[M:3/4] x6 |[M:1/4] x2 |[M:4/4] z2 G>G z e f>d | %11
 z2 G>G G2 [Ec]2 | z2 E>E z c d>B | z2 E>E E2 c2 | x8 | .[FA]2 C>C C2 [Ge]2 | x8 | x8 | x8 | x8 | %20
 x8 |[M:3/4] x6 |] %22
V:4
 x8 | x8 | x8 | x8 | x8 | x8 | x8 | x8 |[M:3/4] x6 |[M:1/4] x2 |[M:4/4] z4 G2 z2 | x8 | z4 E2 z2 | %13
 x8 | x8 | x8 | x8 | x8 | x8 | x8 | x8 |[M:3/4] x6 |] %22
V:5
 x8 | x8 | x8 | x8 | x6[K:bass] x2 | x8 | x8 | x8 |[M:3/4] x6 |[M:1/4] x2 | %10
[M:4/4][K:treble] z4 G,2 D2 | x2[K:bass] x6 | [E,^G,E]2 [E,G,]>[E,G,] E,-[E,A,] [E,E]->[E,G,E] | %13
 x8 | x8 | x8 | x6[K:bass] x2 | x6[K:treble] x2 | x2[K:bass] x6 | x8 | x8 |[M:3/4] x6 |] %22

